resources/svg/brands/digg.svg

<svg fill="currentColor" xmlns="http://www.w3.org/2000/svg" viewBox="0 0 512 512"><!--! Font Awesome Free 7.0.0 by @fontawesome - https://fontawesome.com License - https://fontawesome.com/license/free (Icons: CC BY 4.0, Fonts: SIL OFL 1.1, Code: MIT License) Copyright 2025 Fonticons, Inc. --><path fill="currentColor" d="M81.7 172.3l-81.7 0 0 174.4 132.7 0 0-250.7-51 0 0 76.3zm0 133.4l-30.8 0 0-92.3 30.8 0 0 92.3zM378.9 172.3l0 174.4 81.8 0 0 28.5-81.8 0 0 40.8 133.1 0 0-243.7-133.1 0zm81.8 133.4l-30.8 0 0-92.3 30.8 0 0 92.3zm-235.6 41l82.1 0 0 28.5-82.1 0 0 40.8 133.3 0 0-243.7-133.3 0 0 174.4zm51.2-133.3l30.8 0 0 92.3-30.8 0 0-92.3zM153.3 96l51.3 0 0 51-51.3 0 0-51zm0 76.3l51.3 0 0 174.4-51.3 0 0-174.4z"/></svg>

<svg fill="currentColor" xmlns="http://www.w3.org/2000/svg" viewBox="0 0 512 512"><!--! Font Awesome Free 6.7.2 by @fontawesome - https://fontawesome.com License - https://fontawesome.com/license/free (Icons: CC BY 4.0, Fonts: SIL OFL 1.1, Code: MIT License) Copyright 2024 Fonticons, Inc. --><path d="M81.7 172.3H0v174.4h132.7V96h-51v76.3zm0 133.4H50.9v-92.3h30.8v92.3zm297.2-133.4v174.4h81.8v28.5h-81.8V416H512V172.3H378.9zm81.8 133.4h-30.8v-92.3h30.8v92.3zm-235.6 41h82.1v28.5h-82.1V416h133.3V172.3H225.1v174.4zm51.2-133.3h30.8v92.3h-30.8v-92.3zM153.3 96h51.3v51h-51.3V96zm0 76.3h51.3v174.4h-51.3V172.3z"/></svg>
